X:1
T:Litania de omnibus Sanctis - Lasso
T:#
%%score [ 1 2 3 4 ]
L:1/8
Q:1/4=120
M:4/4
K:C
V:1 treble nm="Soprano" snm="Soprano"
V:2 treble nm="Alto" snm="Alto"
V:3 alto nm="Tenor" snm="Tenor"
V:4 treble nm="Bass" snm="Bass"
V:1
 z16 |[Q:1/4=400][Q:1/4=400][Q:1/4=400][Q:1/4=400] A8 ^G8 | A8 =G8 | E8 E8 | E16 || %5
w: |Ky- ri-|e e-|le- i-|son.|
w: |||||
w: |||||
[M:4/4][Q:1/4=120][Q:1/4=120][Q:1/4=120][Q:1/4=120] z14 | %6
w: |
w: |
w: |
[Q:1/4=400][Q:1/4=400][Q:1/4=400][Q:1/4=400] A8 ^F8 | G8 F8 | E8 E16 || %9
w: Chri- e|e- le-|i- son.|
w: |||
w: |||
[M:4/4][Q:1/4=120][Q:1/4=120][Q:1/4=120][Q:1/4=120] z16 | %10
w: |
w: |
w: |
[Q:1/4=400][Q:1/4=400][Q:1/4=400][Q:1/4=400] A8 ^G8 | A8 =G8 | E8 E8 | E16 || %14
w: Ky- ri-|e e-|le- i-|son.|
w: ||||
w: ||||
[M:4/4][Q:1/4=120][Q:1/4=120][Q:1/4=120][Q:1/4=120] z14 | %15
w: |
w: |
w: |
[Q:1/4=400][Q:1/4=400][Q:1/4=400][Q:1/4=400] F8 E8- | E8 (D4 F4- | F2 ED) E4 F16 || %18
w: Chri- ste|* au\- *|* * * di nos.|
w: |||
w: |||
[M:4/4][Q:1/4=120][Q:1/4=120][Q:1/4=120][Q:1/4=120] z14 | %19
w: |
w: |
w: |
[Q:1/4=400][Q:1/4=400][Q:1/4=400][Q:1/4=400] F8 E8 | E8 (D4 F4- | F2 ED) E4 F16 || %22
w: Chri- ste|ex- au\- *|* * * di nos.|
w: |||
w: |||
[M:4/4][Q:1/4=120][Q:1/4=120][Q:1/4=120][Q:1/4=120] z22 | %23
w: |
w: |
w: |
[Q:1/4=400][Q:1/4=400][Q:1/4=400][Q:1/4=400] G8 G8 | ^F8 G8 | A8 G16 || %26
w: Mi- se-|re- re|no- bis.|
w: |||
w: |||
[M:4/4][Q:1/4=120][Q:1/4=120][Q:1/4=120][Q:1/4=120] z22 | %27
w: |
w: |
w: |
[Q:1/4=400][Q:1/4=400][Q:1/4=400][Q:1/4=400] G16 | ^F8 G8 | A8 G16 || %30
w: O-|ra pro|no- bis.|
w: |||
w: |||
[M:4/4][Q:1/4=120][Q:1/4=120][Q:1/4=120][Q:1/4=120] z22 | %31
w: |
w: |
w: |
[Q:1/4=400][Q:1/4=400][Q:1/4=400][Q:1/4=400] G8 G8 | ^F8 G8 | A8 G16 || %34
w: O- ra-|te pro|no- bis.|
w: |||
w: |||
[M:4/4][Q:1/4=120][Q:1/4=120][Q:1/4=120][Q:1/4=120] z22 | %35
w: |
w: |
w: |
[Q:1/4=400][Q:1/4=400][Q:1/4=400][Q:1/4=400] G16 | ^F8 G8 | A8 G16 || %38
w: Intercedi-|te pro|no- bis.|
w: |||
w: |||
[M:4/4][Q:1/4=120][Q:1/4=120][Q:1/4=120][Q:1/4=120] z26 | %39
w: |
w: |
w: |
[Q:1/4=400][Q:1/4=400][Q:1/4=400][Q:1/4=400] A8 G8 | c8 c8 | c8 c8 | A16 || %43
w: Par- ce|no- bis|Do- mi-|ne.|
w: ||||
w: ||||
[M:4/4][Q:1/4=120][Q:1/4=120][Q:1/4=120][Q:1/4=120] z26 | %44
w: |
w: |
w: |
[Q:1/4=400][Q:1/4=400][Q:1/4=400][Q:1/4=400] A8 G8 | c8 c8 | c8 c8 | A16 || %48
w: Ex- au-|di nos|Do- mi-|ne.|
w: ||||
w: ||||
[M:4/4][Q:1/4=120][Q:1/4=120][Q:1/4=120][Q:1/4=120] z26 | %49
w: |
w: |
w: |
[Q:1/4=400][Q:1/4=400][Q:1/4=400][Q:1/4=400] A8 G8 | c8 c8 | c8 c8 | A16 || %53
w: Li- be-|ra nos|Do- mi-|ne.|
w: ||||
w: ||||
[M:4/4][Q:1/4=120][Q:1/4=120][Q:1/4=120][Q:1/4=120] z26 | %54
w: |
w: |
w: |
[Q:1/4=400][Q:1/4=400][Q:1/4=400][Q:1/4=400] A8 G8 | c8 c8 | c8 c8 | A16 || %58
w: Li- be-|ra nos|Do- mi-|ne.|
w: ||||
w: ||||
[M:4/4][Q:1/4=120][Q:1/4=120][Q:1/4=120][Q:1/4=120] z26 | %59
w: |
w: |
w: |
[Q:1/4=400][Q:1/4=400][Q:1/4=400][Q:1/4=400] A8 G8 | c8 c8 | c8 c8 | A16 || %63
w: Li- be-|ra nos|Do- mi-|ne.|
w: ||||
w: ||||
[M:4/4][Q:1/4=120][Q:1/4=120][Q:1/4=120][Q:1/4=120] z24 | %64
w: |
w: |
w: |
[Q:1/4=400][Q:1/4=400][Q:1/4=400][Q:1/4=400] G8 G8 | ^F8 G8 | ^F8 G8 | G16 || %68
w: Te ro-|ga- mus|au- di|nos.|
w: ||||
w: ||||
[M:4/4][Q:1/4=120][Q:1/4=120][Q:1/4=120][Q:1/4=120] z24 | %69
w: |
w: |
w: |
[Q:1/4=400][Q:1/4=400][Q:1/4=400][Q:1/4=400] G8 G8 | ^F8 G8 | ^F8 G8 | G16 || %73
w: Te ro-|ga- mus|au- di|nos.|
w: ||||
w: ||||
[M:4/4][Q:1/4=120][Q:1/4=120][Q:1/4=120][Q:1/4=120] z24 | %74
w: |
w: |
w: |
[Q:1/4=400][Q:1/4=400][Q:1/4=400][Q:1/4=400] G8 G8 | ^F8 G8 | ^F8 G8 | G16 || %78
w: Te ro-|ga- mus|au- di|nos.|
w: ||||
w: ||||
[M:4/4][Q:1/4=120][Q:1/4=120][Q:1/4=120][Q:1/4=120] z24 | %79
w: |
w: |
w: |
[Q:1/4=400][Q:1/4=400][Q:1/4=400][Q:1/4=400] G8 G8 | ^F8 G8 | ^F8 G8 | G16 || %83
w: Te ro-|ga- mus|au- di|nos.|
w: ||||
w: ||||
[M:4/4][Q:1/4=120][Q:1/4=120][Q:1/4=120][Q:1/4=120] z24 | %84
w: |
w: |
w: |
[Q:1/4=400][Q:1/4=400][Q:1/4=400][Q:1/4=400] G8 G8 | ^F8 G8 | ^F8 G8 | G16 || %88
w: Te ro-|ga- mus|au- di|nos.|
w: ||||
w: ||||
[M:4/4][Q:1/4=120][Q:1/4=120][Q:1/4=120][Q:1/4=120] z12 | z18 | %90
w: ||
w: ||
w: ||
[Q:1/4=400][Q:1/4=400][Q:1/4=400][Q:1/4=400] B8 c8 | c8 B8 | (c8 B8) | A16 || %94
w: Par- ce|no- bis,|Do- mi-|ne.|
w: Ex- au-|di nos,|Do- mi-|ne.|
w: Mi- se-|re- re|no\- *|bis.|
[M:4/4][Q:1/4=120][Q:1/4=120][Q:1/4=120][Q:1/4=120] z14 | %95
w: |
w: |
w: |
[Q:1/4=400][Q:1/4=400][Q:1/4=400][Q:1/4=400] A8 (^G8 | A8) ^F8 | G8 G16 || %98
w: Chri- ste|* a-|di- nos.|
w: Chri- ste|ex- au-|di nos.|
w: |||
[M:4/4][Q:1/4=120][Q:1/4=120][Q:1/4=120][Q:1/4=120] z16 | %99
w: |
w: |
w: |
[Q:1/4=400][Q:1/4=400][Q:1/4=400][Q:1/4=400] A8 ^G8 | A8 G8 | E8 E8 | E16 || %103
w: Ky- ri-|e e-|le- i-|son.|
w: ||||
w: ||||
[M:4/4][Q:1/4=120][Q:1/4=120][Q:1/4=120][Q:1/4=120] z14 | %104
w: |
w: |
w: |
[Q:1/4=400][Q:1/4=400][Q:1/4=400][Q:1/4=400] A8 ^F8 | G8 F8 | E8 E16 || %107
w: Chri- ste|e- le-|i- son.|
w: |||
w: |||
[M:4/4][Q:1/4=120][Q:1/4=120][Q:1/4=120][Q:1/4=120] z30 | %108
w: |
w: |
w: |
[Q:1/4=400][Q:1/4=400][Q:1/4=400][Q:1/4=400] F8 D8 | (D8 E8- | E4 F4 G8- | G8)[Q:1/4=393] G8- | %112
w: Ky- ri-|e *||* e\-|
w: ||||
w: ||||
[Q:1/4=380] G8[Q:1/4=368] (c8 |[Q:1/4=356] _B8)[Q:1/4=345] A8 |[Q:1/4=340] A24 |] %115
w: * le\-|* i-|son.|
w: |||
w: |||
V:2
 z16 | E8 E8 | D8 E8 | C8 B,8 | ^C16 ||[M:4/4] z14 | E8 D8 | D8 D8 | B,8 ^C16 ||[M:4/4] z16 | %10
w: |Ky- ri-|e e-|le- i-|son.||Chri- ste|e- le-|i- son.||
w: ||||||||||
w: ||||||||||
 E8 E8 | D8 E8 | C8 B,8 | ^C16 ||[M:4/4] z14 | C8 C8- | C8 A,8 | C8 C16 ||[M:4/4] z14 | C8 C8 | %20
w: Ky- ri-|e e-|le- i-|son.||Chri- ste|* au-|di nos.||Chri- ste|
w: ||||||||||
w: ||||||||||
 C8 A,8 | C8 C16 ||[M:4/4] z22 | D8 D8 | D8 D8 | F8 E16 ||[M:4/4] z22 | D16 | D8 D8 | F8 E16 || %30
w: ex- au-|di nos.||Mi- se-|re- re|no- bis.||O-|ra pro|no- bis.|
w: ||||||||||
w: ||||||||||
[M:4/4] z22 | D8 D8 | D8 D8 | F8 E16 ||[M:4/4] z22 | D16 | D8 D8 | F8 E16 ||[M:4/4] z26 | E8 E8 | %40
w: |O- ra-|te pro|no- bis.||Intercedi-|te pro|no- bis.||Par- ce|
w: ||||||||||
w: ||||||||||
 E8 E8- | E4 F8 E4 | F16 ||[M:4/4] z26 | E8 E8 | E8 E8- | E4 F8 E4 | F16 ||[M:4/4] z26 | E8 E8 | %50
w: no- bis|* Do- mi-|ne.||Ex- au-|di nos|* Do- mi-|ne.||Li- be-|
w: ||||||||||
w: ||||||||||
 E8 E8- | E4 F8 E4 | F16 ||[M:4/4] z26 | E8 E8 | E8 E8- | E4 F8 E4 | F16 ||[M:4/4] z26 | E8 E8 | %60
w: ra nos|* Do- mi-|ne.||Li- be-|ra nos|* Do- mi-|ne.||Li- be-|
w: ||||||||||
w: ||||||||||
 E8 E8- | E4 F8 E4 | F16 ||[M:4/4] z24 | E8 D8 | D8 B,8 | D8 D8 | E16 ||[M:4/4] z24 | E8 D8 | %70
w: ra nos|* Do- mi-|ne.||Te ro-|ga- mus|au- di|nos.||Te ro-|
w: ||||||||||
w: ||||||||||
 D8 B,8 | D8 D8 | E16 ||[M:4/4] z24 | E8 D8 | D8 B,8 | D8 D8 | E16 ||[M:4/4] z24 | E8 D8 | D8 B,8 | %81
w: ga- mus|au- di|nos.||Te ro-|ga- mus|au- di|nos.||Te ro-|ga- mus|
w: |||||||||||
w: |||||||||||
 D8 D8 | E16 ||[M:4/4] z24 | E8 D8 | D8 B,8 | D8 D8 | E16 ||[M:4/4] z12 | z18 | G8 G8 | A8 G8 | %92
w: au- di|nos.||Te ro-|ga- mus|au- di|nos.|||Par- ce|no- bis,|
w: |||||||||Ex- au-|di nos,|
w: |||||||||Mi- se-|re- re|
 (G8 G8) | ^F16 ||[M:4/4] z14 | E8 (E8 | E8) D8 | D8 E16 ||[M:4/4] z16 | E8 E8 | D8 E8 | C8 B,8 | %102
w: Do- mi-|ne.||Chri- ste|* a-|di- nos.||Ky- ri-|e e-|le- i-|
w: Do- mi-|ne.||Chri- ste|ex- au-|di nos.|||||
w: no\- *|bis.|||||||||
 ^C16 ||[M:4/4] z14 | E8 D8 | D8 D8 | B,8 ^C16 ||[M:4/4] z30 | D8 _B,8 | A,8 (C8- | C8 D8- | %111
w: son.||Chri- ste|e- le-|i- son.||Ky- ri-|e e\-||
w: |||||||||
w: |||||||||
 C8) (C8 | B,8 A,8 | D8) D8 | (D8 ^C16) |] %115
w: * le\-||* i-|son. *|
w: ||||
w: ||||
V:3
"^Litania de omnibus Sanctis""^Orlando di Lasso\n(1530-94)" C2 B,2 A,2 B,2 A,2 ^G,2 A,4 | C8 B,8 | %2
w: Ky- ri- e e- le- i- son.|Ky- ri-|
w: ||
w: ||
w: ||
w: ||
w: ||
w: ||
w: ||
 A,8 B,8 | A,8 ^G,8 | A,16 || C2 A,2 B,2 A,2 ^G,2 A,4 | C8 A,8 | B,8 A,8 | ^G,8 A,16 || %9
w: e e-|le- i-|son.|Chri- ste e- le- i- son.|Chri- ste|e- le-|i- son.|
w: |||||||
w: |||||||
w: |||||||
w: |||||||
w: |||||||
w: |||||||
w: |||||||
 C2 B,2 A,2 B,2 A,2 ^G,2 A,4 | C8 B,8 | A,8 B,8 | A,8 ^G,8 | A,16 || A,2 (G,2 A,2) F,2 G,2 A,4 | %15
w: Ky- ri- e e- le- i- son.|Ky- ri-|e e-|le- i-|son.|Chri- ste * au- di nos.|
w: ||||||
w: ||||||
w: ||||||
w: ||||||
w: ||||||
w: ||||||
w: ||||||
 A,8 (G,8 | A,8) F,8 | G,8 A,16 || A,2 G,2 A,2 F,2 G,2 A,4 | A,8 G,8 | A,8 F,8 | G,8 A,16 || %22
w: Chri- ste|* au-|di nos.|Chri- ste ex- au- di nos.|Chri- ste|ex- au-|di nos.|
w: |||||||
w: |||||||
w: |||||||
w: |||||||
w: |||||||
w: |||||||
w: |||||||
 C16 D2 B,4 | B,8 B,8 | A,8 B,8 | C8 C16 || C16 D2 B,4 | B,16 | A,8 B,8 | C8 C16 || C16 D2 B,4 | %31
w: Pater~de~coelis De- us,|Mi- se-|re- re|no- bis.|Sancta~Ma- ri- a,|O-|ra pro|no- bis.|Omnes~sancti~Angeli~et~Ar- chan- geli,|
w: Fili~Redemptor~mundi De- us,||||Sancta~Dei~Ge- ne- trix,||||Omnes~sancti~beatorum~Spirituum or- dines,|
w: Spiritus~sancte De- us,||||Sancta~Virgo~vir- gi- num,|||||
w: Sancta~Trinitas~unus De- us,||||Sancte~Mi- cha- el,|||||
w: ||||Sancte~Ga- bri- el,|||||
w: ||||Sancte~Ra- pha- el,|||||
w: |||||||||
w: |||||||||
 B,8 B,8 | A,8 B,8 | C8 C16 || C16 D2 B,4 | B,16 | A,8 B,8 | C8 C16 || C16 B,2 A,2 C2 D4 | C8 B,8 | %40
w: O- ra-|te pro|no- bis.|Omnes~Sancti~et~Sanctae De- i,|Intercedi-|te pro|no- bis.|Propi- ti- us e- sto,|Par- ce|
w: |||||||||
w: |||||||||
w: |||||||||
w: |||||||||
w: |||||||||
w: |||||||||
w: |||||||||
 A,8 G,8 | A,8 G,8 | F,16 || C16 B,2 A,2 C2 D4 | C8 B,8 | A,8 G,8 | A,8 G,8 | F,16 || %48
w: no- bis|Do- mi-|ne.|Propi- ti- us e- sto,|Ex- au-|di nos|Do- mi-|ne.|
w: ||||||||
w: ||||||||
w: ||||||||
w: ||||||||
w: ||||||||
w: ||||||||
w: ||||||||
 C16 B,2 A,2 C2 D4 | C8 B,8 | A,8 G,8 | A,8 G,8 | F,16 || C16 B,2 A,2 C2 D4 | C8 B,8 | A,8 G,8 | %56
w: Ab o- mni ma- lo,|Li- be-|ra nos|Do- mi-|ne.|A~flagello ter- rae- mo- tus,|Li- be-|ra nos|
w: Ab~o- mni pec- ca- to,|||||A~peste,~fa- me et bel- lo,|||
w: Ab i- ra tu- a,|||||A~morte ~per- pe- tu- a,|||
w: A~subitanea~et~impro- vi- sa mor- te,|||||Per~mysterium~sanctae~incarnati- o- nis tu- ae,|||
w: Ab~insidiis di- a- bo- li,|||||Per~ad- ven- tum tu- um,|||
w: Ab~ira,~et~odio,~et~omni~mala vo- lun- ta- te,|||||Per~nativi- ta- tem tu- am,|||
w: A~spiritu~forni- ca- ti- o- nis,|||||Per~baptismum~et~sanctam~jeju- ni- um tu- um|||
w: A~fulgure~et tem- pes- ta- te,|||||Per~sanctam~resurrecti- o- nem tu- am,|||
 A,8 G,8 | F,16 || C16 B,2 A,2 C2 D4 | C8 B,8 | A,8 G,8 | A,8 G,8 | F,16 || C16 B,2 D2 E4 | %64
w: Do- mi-|ne.|Per~crucem~et~passi- o- nem tu- am,|Li- be-|ra nos|Do- mi-|ne.|Pec- ca- to- res,|
w: ||Per~mortem~et~sepul- tu- ram tu- am,|||||Ut~no- bis par- cas,|
w: ||Per~sanctam~resurrecti- o- nem tu- am,|||||Ut~nobis~in- dul- ge- as,|
w: ||Per~admirabilem~ascensi- o- nem tu- am,|||||Ut~ad~veram~poenitentiam~nos * * *|
w: ||Per~adventum~Spiritus~Sancti Pa- ra- cli- ti,|||||~~~perducere di- gne- ris,|
w: ||In~die ju- di- ci- i,|||||Ut~Ecclesiam~tuam~sanctam~regere * * *|
w: |||||||~~~~et~conservare di- gne- ris,|
w: ||||||||
 C8 B,8 | A,8 G,8 | A,8 B,8 | C16 || C16 B,2 D2 E4 | C8 B,8 | A,8 G,8 | A,8 B,8 | C16 || %73
w: Te ro-|ga- mus|au- di|nos.|Ut~dominum~Apostolicum~et~ * * *|Te ro-|ga- mus|au- di|nos.|
w: ||||~~~omnes~ecclesiasticos~ordines * * *|||||
w: ||||~~~in~sancta~religione~conservare di- gne- ris,|||||
w: ||||Ut~inimicos~sanctae~Ecclesiae * * *|||||
w: ||||~~~humiliare di- gne- ris,|||||
w: ||||Ut~regibus~et~principibus * * *|||||
w: ||||~~~christianis~pacem~et~veram * * *|||||
w: ||||~~~concordiam~donare di- gne- ris,|||||
 C16 B,2 D2 E4 | C8 B,8 | A,8 G,8 | A,8 B,8 | C16 || C16 B,2 D2 E4 | C8 B,8 | A,8 G,8 | A,8 B,8 | %82
w: Ut~cuncto~populo~christiano~pacem~et * * *|Te ro-|ga- mus|au- di|nos.|Ut~mentes~nostras~ad~cælestia~desideria e- ri- gas.|Te ro-|ga- mus|au- di|
w: ~~~unitatem~~largiri di- gne- ris,|||||Ut~omnibus~benefactoribus~nostris * * *||||
w: Ut~omnes~errantes~ad~unitatem~Ecclesiae * * *|||||~~~sempiterna~bona~re- tri- bu- as,||||
w: ~~~revocare,~et~infideles~universos~ad * * *|||||Ut~animas~nostras,~fratrum,~ * * *||||
w: ~~~Evangelii~lumen~perducere di- gne- ris,|||||~~~propinquorum~et~benefactorum~ * * *||||
w: Ut~nosmetípsos~in~tuo~sancto * * *|||||~~~nostrorum~ab~aeterna~damnatione~e- ri- pi- as,||||
w: ~~~servitio~confortare~et~conservare di- gne- ris,|||||||||
w: |||||||||
 C16 || C16 B,2 D2 E4 | C8 B,8 | A,8 G,8 | A,8 B,8 | C16 || D2 D2 (D2 E2) E4 | %89
w: nos.|Ut~fructus~terrae~dare~et~conservare di- gne- ris,|Te ro-|ga- mus|au- di|nos.|A- gnus De\- * i,|
w: |Ut~omnibus~fidelibus~defunctis * * *|||||A- gnus De\- * i,|
w: |~~~requiem~aeternam~donare di- gne- ris,|||||A- gnus De\- * i,|
w: |Ut~nos~exaudire di- gne- ris,||||||
w: |Fi- li De- i,||||||
w: |||||||
w: |||||||
w: |||||||
 E2 E2 E2 D2 E2 C2 D2 E4 | D8 E8 | F8 D8 | (E8 D8) | D16 || C2 (B,2 C2) A,2 B,2 C4 | C8 (B,8 | %96
w: qui tol- lis pec- ca- ta mun- di,|Par- ce|no- bis,|Do- mi-|ne.|Chri- ste * au- di nos.|Chri- ste|
w: qui tol- lis pec- ca- ta mun- di,|Ex- au-|di nos,|Do- mi-|ne.|Chri- ste ex- au- di nos.|Chri- ste|
w: qui tol- lis pec- ca- ta mun- di,|Mi- se-|re- re|no\- *|bis.|||
w: |||||||
w: |||||||
w: |||||||
w: |||||||
w: |||||||
 C8) A,8 | B,8 C16 || C2 B,2 A,2 B,2 A,2 ^G,2 A,4 | C8 B,8 | A,8 B,8 | A,8 ^G,8 | A,16 || %103
w: * a-|di- nos.|Ky- ri- e e- le- i- son.|Ky- ri-|e e-|le- i-|son.|
w: ex- au-|di nos.||||||
w: |||||||
w: |||||||
w: |||||||
w: |||||||
w: |||||||
w: |||||||
 C2 A,2 B,2 A,2 ^G,2 A,4 | C8 A,8 | B,8 A,8 | ^G,8 A,16 || %107
w: Chri- ste e- le- i- son.|Chri- ste|e- le-|i- son.|
w: ||||
w: ||||
w: ||||
w: ||||
w: ||||
w: ||||
w: ||||
 A,2 G,2 F,2 (G,2 A,2 _B,2 G,2 A,2 G,2) (E,2 G,2) F,2 (F,2 E,4) | A,8 G,8 | F,8 (G,8 | A,8 _B,8 | %111
w: Ky- ri- e e\- * * * * * le\- * i- son. *|Ky- ri-|e e\-||
w: ||||
w: ||||
w: ||||
w: ||||
w: ||||
w: ||||
w: ||||
 G,8 A,8 | G,8) (E,8 | G,8) F,8 | (F,8 E,16) |] %115
w: |* le\-|* i-|son. *|
w: ||||
w: ||||
w: ||||
w: ||||
w: ||||
w: ||||
w: ||||
V:4
 z16 | A,8 E,8 | F,8 E,8 | A,,8 E,8 | A,,16 ||[M:4/4] z14 | A,8 D,8 | G,8 D,8 | E,8 A,,16 || %9
w: |Ky- ri-|e e-|le- i-|son.||Chri- ste|e- le-|i- son.|
w: |||||||||
w: |||||||||
[M:4/4] z16 | A,8 E,8 | F,8 E,8 | A,,8 E,8 | A,,16 ||[M:4/4] z14 | F,8 (C,8 | A,,8) D,8 | %17
w: |Ky- ri-|e e-|le- i-|son.||Chri- ste|* au-|
w: ||||||||
w: ||||||||
 C,8 F,16 ||[M:4/4] z14 | F,8 C,8 | A,,8 D,8 | C,8 F,16 ||[M:4/4] z22 | G,8 G,8 | D,8 G,8 | %25
w: di nos.||Chri- ste|ex- au-|di nos.||Mi- se-|re- re|
w: ||||||||
w: ||||||||
 F,8 C,16 ||[M:4/4] z22 | G,16 | D,8 G,8 | F,8 C,16 ||[M:4/4] z22 | G,8 G,8 | D,8 G,8 | F,8 C,16 || %34
w: no- bis.||O-|ra pro|no- bis.||O- ra-|te pro|no- bis.|
w: |||||||||
w: |||||||||
[M:4/4] z22 | G,16 | D,8 G,8 | F,8 C,16 ||[M:4/4] z26 | A,8 E,8 | A,,8 C,8 | A,,8 C,8 | F,,16 || %43
w: |Intercedi-|te pro|no- bis.||Par- ce|no- bis|Do- mi-|ne.|
w: |||||||||
w: |||||||||
[M:4/4] z26 | A,8 E,8 | A,,8 C,8 | A,,8 C,8 | F,,16 ||[M:4/4] z26 | A,8 E,8 | A,,8 C,8 | A,,8 C,8 | %52
w: |Ex- au-|di nos|Do- mi-|ne.||Li- be-|ra nos|Do- mi-|
w: |||||||||
w: |||||||||
 F,,16 ||[M:4/4] z26 | A,8 E,8 | A,,8 C,8 | A,,8 C,8 | F,,16 ||[M:4/4] z26 | A,8 E,8 | A,,8 C,8 | %61
w: ne.||Li- be-|ra nos|Do- mi-|ne.||Li- be-|ra nos|
w: |||||||||
w: |||||||||
 A,,8 C,8 | F,,16 ||[M:4/4] z24 | C,8 G,8 | D,8 E,8 | D,8 G,8 | C,16 ||[M:4/4] z24 | C,8 G,8 | %70
w: Do- mi-|ne.||Te ro-|ga- mus|au- di|nos.||Te ro-|
w: |||||||||
w: |||||||||
 D,8 E,8 | D,8 G,8 | C,16 ||[M:4/4] z24 | C,8 G,8 | D,8 E,8 | D,8 G,8 | C,16 ||[M:4/4] z24 | %79
w: ga- mus|au- di|nos.||Te ro-|ga- mus|au- di|nos.||
w: |||||||||
w: |||||||||
 C,8 G,8 | D,8 E,8 | D,8 G,8 | C,16 ||[M:4/4] z24 | C,8 G,8 | D,8 E,8 | D,8 G,8 | C,16 || %88
w: Te ro-|ga- mus|au- di|nos.||Te ro-|ga- mus|au- di|nos.|
w: |||||||||
w: |||||||||
[M:4/4] z12 | z18 | G,8 C,8 | F,8 G,8 | (C,8 G,8) | D,16 ||[M:4/4] z14 | A,8 E,8 | A,8 D,8 | %97
w: ||Par- ce|no- bis,|Do- mi-|ne.||Chri- ste|* a-|
w: ||Ex- au-|di nos,|Do- mi-|ne.||Chri- ste|ex- au-|
w: ||Mi- se-|re- re|no\- *|bis.||||
 G,8 C,16 ||[M:4/4] z16 | A,8 E,8 | F,8 E,8 | A,,8 E,8 | A,,16 ||[M:4/4] z14 | A,8 D,8 | G,8 D,8 | %106
w: di- nos.||Ky- ri-|e e-|le- i-|son.||Chri- ste|e- le-|
w: di nos.|||||||||
w: |||||||||
 E,8 A,,16 ||[M:4/4] z30 | D,8 G,,8 | D,8 (C,8 | A,,8 G,,8- | C,8 A,,8 | E,8) (A,,8 | G,,8) D,8 | %114
w: i- son.||Ky- ri-|e e\-|||* le\-|* i-|
w: ||||||||
w: ||||||||
 (D,8 A,,16) |] %115
w: son. *|
w: |
w: |

